X:8022
T:Jimmy of the Glen. BF11.59
M:4/4
Q:140
C:Browne A hand
S:MS11,c1800.,Browne Coll.,Lakes
R:Reel
O:England
A:Lakes
Z:vmp.Chris Partington
K:D
F/G/|A>BAF A>FD>F|Eeef gfed|g>ad>f B>dG>B|A>FE>FD3|:!
F/G/|A>BA>FAF-FD|Eeef gfed|A>BAF A<FED|EBBA BEE|]
